X:1
T:For Christ and the Church
T:For Christ and the Church
T:William James Kirkpatrick
T:Eliza Edmunds Hewitt, 1890
T:Public Domain Courtesy of the Cyber Hymnal™
T:Public Domain Courtesy of the Cyber Hymnal™
C:William James Kirkpatrick
Z:Public Domain
Z:Courtesy of the Cyber Hymnal™
%%score ( 1 2 ) ( 3 4 )
L:1/8
Q:1/4=100
M:4/4
K:Db
V:1 treble 
V:2 treble 
V:3 bass 
V:4 bass 
V:1
 [FA]2 | [FA]2 [DF]>[EG] [FA]2 [DF][DE] | D2 D2 [Fd]2 [Ac][GB] | [FA]2 [FA]>[GB] [FA]2 [EG][DF] | %4
w: 1.~For|Christ and the Church, let our|voic- es ring, Let us|hon- or the name of our|
w: 2.~For|Christ and the Church, be our|ear- nest prayer, Let us|fol- low His ban- ner, the|
w: 3.~For|Christ and the Church, will- ing|of- ferings make, Time and|tal- ents and gold, for the|
w: 4.~For|Christ and the Church, let us|cast a- side, By His|con- quer- ing grace, chains of|
 [DF]2 [B,E][B,D] !fermata![CE]2 [CA][EG] | [DF]2 [DF]>[CE] D2 [DF][EG] | [FA]2 [Fd]2 [Fd]3 [FA] | %7
w: own bless- èd king; Let us|work with a will in the|strength of youth, And|
w: cross dai- ly bear; Let us|yield, whol- ly yield, to His|Spir- it’s power, And|
w: dear Mas- ter’s sake; We’ll re-|mem- ber the best we can|bring to Him, The|
w: self, fear and pride; May our|lives be en- riched by an|aim so grand, Then|
 [GB]2 [Gd]>[GB] [FA]2 D[DG] | [DF]2 [CE]>[CE] !fermata!D2 ||"^Refrain" A2 | %10
w: loy- al- ly stand for the|king- dom of truth.||
w: faith- ful- ly serve Him in|life’s bright- est hour.|For|
w: heart’s wealth of love, that will|nev- er grow dim.||
w: hap- py the call to the|Sav- ior’s right hand.||
 [Gc]4- [Gc]>[Gc] [GB]>[Gc] | [Fd]4 [FA]2 [FA]2 | [GB]4- [GB]>[Bd] [Ac]>[GB] | [FA]6 [FA]>[FA] | %14
w: ||||
w: Christ * our dear Re-|deem- er, For|Christ * who died to|save; For the|
w: ||||
w: ||||
 [Fd]4- [Fd]>[Fd] [Gc]>[Ad] | [Ge]2 [Gd]4 [GB]2 | [FA]3 [FA] [GB]2 [Gc]2 | [Fd]6 |] %18
w: ||||
w: Church * His blood hath|pur- chased, Lord,|make us pure and|brave.|
w: ||||
w: ||||
V:2
 x2 | x8 | D2 D2 x4 | x8 | x8 | x4 D2 x2 | x8 | x6 D x | x4 D2 || A2 | x8 | x8 | x8 | x8 | x8 | %15
 x8 | x8 | x6 |] %18
V:3
 [D,D]2 | [D,D]2 [D,A,]>[D,A,] [D,D]2 [D,A,][D,G,] | [D,F,]2 [D,F,]2 [D,A,]2 [D,D][D,D] | %3
w: ~|~ ~ ~ ~ ~ ~|~ ~ ~ ~ ~|
 [D,D]2 [D,D]>[D,D] [D,D]2 [C,A,][D,A,] | [B,,B,]2 [E,=G,][E,G,] !fermata![A,,A,]2 [A,,A,][A,,A,] | %5
w: ~ ~ ~ ~ ~ ~|~ ~ ~ ~ ~ ~|
 [D,A,]2 [D,A,]>[D,G,] [D,F,]2 [D,A,][D,A,] | [D,A,]2 [D,A,]2 [D,A,]3 [D,D] | %7
w: ~ ~ ~ ~ ~ ~|~ ~ ~ ~|
 [G,D]2 [G,B,]>[G,D] [D,D]2 [F,A,][G,B,] | A,2 [A,,G,]>[A,,G,] !fermata![D,F,]2 || z2 | %10
w: ~ ~ ~ ~ ~ ~|~ ~ ~ ~||
 z2 [A,E]2 [A,E]>[A,E] [A,E]>A, | [D,A,]4 [D,D]2 z2 | z2 [G,D]2 [G,D]>[G,D] [G,D]>[G,D] | %13
w: For Christ ~ ~ ~|~ ~|For Christ ~ ~ ~|
 [D,D]6 z2 | z2 [D,A,]>[D,A,] [D,A,]>[D,A,] [E,A,]>[F,A,] | [G,B,]2 [G,B,]4 [G,D]2 | %16
w: ~|For the Church * * *||
 [A,D]3 [A,D] [A,C]2 [A,,A,]2 | [D,A,]6 |] %18
w: ||
V:4
 x2 | x8 | x8 | x8 | x8 | x8 | x8 | x8 | A,2 x4 || x2 | x15/2 A,/ | x8 | x8 | x8 | x8 | x8 | x8 | %17
 x6 |] %18

